X:232
T:Iron Horse
C:Tony Robertson
N:Transcribed by Vance Henry From the Iron Horse cd "Ridin' Out the Storm" 
R:bluegrass
L:1/8
Q:1/4=285
M:4/4
K:A
"Capo 2nd"z8 |: "G"=ga a=c' a2 ac' | a=g e^d =d=c A2 | =ga a=c' a2 ac' | a=g e^d =d4 | 
=ga a=c' a2 ac' | a=g e^d =d=c A2 | "F"d^d e=g ed eg | "D"e^d =d=c "G"A4 :|: AG =G^G AG =G^G | 
A=c d^d =dc A2 | AG =G^G AG =G^G | A=c d^d =d4 | "G"AG =G^G AG =G^G | A=c d^d =dc A2 | 
"F"d^d e=g ed eg | "D"e^d =d=c "G"A4 :| 


